X: 21832
T: SIR WATKIN W. WYNN
O: Welsh air
Q: "Moderate."
%R: air, waltz
B: W. Hamilton "Universal Tune-Book" Vol. 2 Glasgow 1846 p.183 #2
S: http://s3-eu-west-1.amazonaws.com/itma.dl.printmaterial/book_pdfs/hamiltonvol2web.pdf
Z: 2016 John Chambers <jc:trillian.mit.edu>
M: 6/8
L: 1/16
K: Bb
% - - - - - - - - - - - - - - - - - - - - - - - - -
F2 |\
B2d2f2 d2B2B2 | c2(ec)(dB) c2A2F2 |\
B2(dB)(cA) B2G2E2 | F2B2A2 B2 :|\
F2 |\
B2d2f2 b2f2d2 | (cd)(ef)(g^f) g2e2c2 |
(Bc)(de)(fg) f2d2B2 | c2f2=e2 f4d_e |\
f2b2f2 d2B2B2 | c2(ec)(dB) c2A2F2 |\
B2(dB)(cA) B2G2E2 | F2B2A2 B4 |]
% - - - - - - - - - - - - - - - - - - - - - - - - -

%%sep 1 1 500
%%sep 1 1 500

